svg/system/classify_2_fill.svg

<?xml version="1.0" encoding="UTF-8"?>
<svg width="24px" height="24px" viewBox="0 0 24 24" version="1.1" xmlns="http://www.w3.org/2000/svg" xmlns:xlink="http://www.w3.org/1999/xlink">
    <title>classify_2_fill</title>
    <g id="Icon" stroke="none" stroke-width="1" fill="none" fill-rule="evenodd">
        <g id="System" transform="translate(-384.000000, -432.000000)">
            <g id="classify_2_fill" transform="translate(384.000000, 432.000000)">
                <path d="M24,0 L24,24 L0,24 L0,0 L24,0 Z M12.5935,23.2578 L12.5819,23.2595 L12.5109,23.295 L12.4919,23.2987 L12.4767,23.295 L12.4057,23.2595 C12.3958,23.2564 12.387,23.259 12.3821,23.2649 L12.378,23.2758 L12.3609,23.7031 L12.3659,23.7235 L12.3769,23.7357 L12.4805,23.8097 L12.4953,23.8136 L12.5071,23.8097 L12.6107,23.7357 L12.6233,23.7197 L12.6267,23.7031 L12.6096,23.2758 C12.6076,23.2657 12.601,23.2593 12.5935,23.2578 Z M12.8584,23.1453 L12.8445,23.1473 L12.6598,23.2397 L12.6499,23.2499 L12.6472,23.2611 L12.6651,23.6906 L12.6699,23.7034 L12.6784,23.7105 L12.8793,23.8032 C12.8914,23.8069 12.9022,23.803 12.9078,23.7952 L12.9118,23.7812 L12.8777,23.1665 C12.8753,23.1546 12.8674,23.147 12.8584,23.1453 Z M12.143,23.1473 C12.1332,23.1424 12.1222,23.1453 12.1156,23.1526 L12.1099,23.1665 L12.0758,23.7812 C12.0751,23.7927 12.0828,23.8019 12.0926,23.8046 L12.1083,23.8032 L12.3092,23.7105 L12.3186,23.7024 L12.3225,23.6906 L12.3404,23.2611 L12.3372,23.2485 L12.3278,23.2397 L12.143,23.1473 Z" id="MingCute" fill-rule="nonzero"></path>
                <path d="M15.5858,2.75742 C16.3668,1.97637 17.6332,1.97637 18.4142,2.75742 L21.2426,5.58584 C22.0237,6.36689 22.0237,7.63322 21.2426,8.41427 L18.4142,11.2427 C17.6332,12.0237 16.3668,12.0237 15.5858,11.2427 L12.7574,8.41427 C11.9763,7.63322 11.9763,6.36689 12.7574,5.58584 L15.5858,2.75742 Z M9,3.00009 C10.1046,3.00009 11,3.89552 11,5.00009 L11,9.00009 C11,10.1047 10.1046,11.00009 9,11.00009 L5,11.00009 C3.89543,11.00009 3,10.1047 3,9.00009 L3,5.00009 C3,3.89552 3.89543,3.00009 5,3.00009 L9,3.00009 Z M21,15.0001 C21,13.8955 20.1046,13.0001 19,13.0001 L15,13.0001 C13.8954,13.0001 13,13.8955 13,15.0001 L13,19.0001 C13,20.1047 13.8954,21.0001 15,21.0001 L19,21.0001 C20.1046,21.0001 21,20.1047 21,19.0001 L21,15.0001 Z M9,13.0001 C10.1046,13.0001 11,13.8955 11,15.0001 L11,19.0001 C11,20.1047 10.1046,21.0001 9,21.0001 L5,21.0001 C3.89543,21.0001 3,20.1047 3,19.0001 L3,15.0001 C3,13.8955 3.89543,13.0001 5,13.0001 L9,13.0001 Z" id="形状" fill="#09244B"></path>
            </g>
        </g>
    </g>
</svg>

<svg xmlns="http://www.w3.org/2000/svg" width="24" height="24"><g fill="none" fill-rule="evenodd"><path d="M24 0v24H0V0h24ZM12.594 23.258l-.012.002-.071.035-.02.004-.014-.004-.071-.036c-.01-.003-.019 0-.024.006l-.004.01-.017.428.005.02.01.013.104.074.015.004.012-.004.104-.074.012-.016.004-.017-.017-.427c-.002-.01-.009-.017-.016-.018Zm.264-.113-.014.002-.184.093-.01.01-.003.011.018.43.005.012.008.008.201.092c.012.004.023 0 .029-.008l.004-.014-.034-.614c-.003-.012-.01-.02-.02-.022Zm-.715.002a.023.023 0 0 0-.027.006l-.006.014-.034.614c0 .012.007.02.017.024l.015-.002.201-.093.01-.008.003-.011.018-.43-.003-.012-.01-.01-.184-.092Z"/><path fill="#09244B" d="M15.586 2.757a2 2 0 0 1 2.828 0l2.829 2.829a2 2 0 0 1 0 2.828l-2.829 2.829a2 2 0 0 1-2.828 0l-2.829-2.829a2 2 0 0 1 0-2.828l2.829-2.829ZM9 3a2 2 0 0 1 2 2v4a2 2 0 0 1-2 2H5a2 2 0 0 1-2-2V5a2 2 0 0 1 2-2h4Zm12 12a2 2 0 0 0-2-2h-4a2 2 0 0 0-2 2v4a2 2 0 0 0 2 2h4a2 2 0 0 0 2-2v-4ZM9 13a2 2 0 0 1 2 2v4a2 2 0 0 1-2 2H5a2 2 0 0 1-2-2v-4a2 2 0 0 1 2-2h4Z"/></g></svg>
